; generated by PrusaSlicer 2.5.0+win64 on 2022-12-16 at 21:46:02 UTC

; 

; external perimeters extrusion width = 0.60mm
; perimeters extrusion width = 0.50mm
; infill extrusion width = 0.50mm
; solid infill extrusion width = 0.50mm
; top infill extrusion width = 0.45mm
; first layer extrusion width = 0.42mm

M73 P0 R19
M73 Q0 S19
M107
;TYPE:Custom
M862.3 P "MK3S" ; printer model check
M862.1 P0.4 ; nozzle diameter check
M115 U3.10.0 ; tell printer latest fw version
G90 ; use absolute coordinates
M83 ; extruder relative mode
M104 S215 ; set extruder temp
M140 S60 ; set bed temp
M190 S60 ; wait for bed temp
M109 S215 ; wait for extruder temp
G28 W ; home all without mesh bed level
G80 ; mesh bed leveling
G1 Z0.2 F720
G1 Y-3 F1000 ; go outside print area
G92 E0
G1 X60 E9 F1000 ; intro line
G1 X100 E12.5 F1000 ; intro line
G92 E0
M221 S95

; Don't change E values below. Excessive value can damage the printer.

M907 E538 ; set extruder motor current
G21 ; set units to millimeters
G90 ; use absolute coordinates
M83 ; use relative distances for extrusion
M900 K0.05 ; Filament gcode LA 1.5
M900 K30 ; Filament gcode LA 1.0
M107
;LAYER_CHANGE
;Z:0.2
;HEIGHT:0.2
;BEFORE_LAYER_CHANGE
G92 E0.0
;0.2


G1 E-.8 F2100
G1 Z.4 F720
;AFTER_LAYER_CHANGE
;0.2
G1 X111.865 Y93.204 F10800
G1 Z.2 F720
G1 E.8 F2100
M204 S800
;TYPE:Skirt/Brim
;WIDTH:0.42
G1 F1200
G1 X112.334 Y92.64 E.023
G1 X114.424 Y90.811 E.08707
G1 X116.774 Y89.331 E.08707
G1 X119.737 Y88.104 E.10057
G1 X122.445 Y87.488 E.08707
G1 X124.784 Y87.304 E.07355
G1 X127.555 Y87.488 E.08707
G1 X130.674 Y88.237 E.10057
G1 X133.226 Y89.331 E.08707
G1 X135.226 Y90.557 E.07355
G1 X137.36 Y92.334 E.08707
G1 X139.189 Y94.424 E.08707
G1 X140.669 Y96.774 E.08707
G1 X141.896 Y99.737 E.10057
G1 X142.512 Y102.445 E.08707
G1 X142.696 Y104.784 E.07355
G1 X142.512 Y107.555 E.08707
G1 X141.763 Y110.674 E.10057
G1 X140.669 Y113.226 E.08707
G1 X139.443 Y115.226 E.07355
G1 X137.666 Y117.36 E.08707
G1 X135.576 Y119.189 E.08707
G1 X133.226 Y120.669 E.08707
G1 X130.263 Y121.896 E.10057
G1 X127.555 Y122.512 E.08707
G1 X125.216 Y122.696 E.07355
G1 X122.445 Y122.512 E.08707
G1 X119.326 Y121.763 E.10057
G1 X116.774 Y120.669 E.08707
G1 X114.774 Y119.443 E.07355
G1 X112.64 Y117.666 E.08707
G1 X110.811 Y115.576 E.08707
G1 X109.331 Y113.226 E.08707
M73 Q1 S19
G1 X108.104 Y110.263 E.10057
G1 X107.488 Y107.555 E.08707
M73 P1 R19
G1 X107.304 Y105.216 E.07355
G1 X107.488 Y102.445 E.08707
G1 X108.237 Y99.326 E.10057
G1 X109.331 Y96.774 E.08707
G1 X110.557 Y94.774 E.07355
G1 X111.827 Y93.25 E.06219
M204 S1000
G1 X112.106 Y93.488 F10800
M204 S800
G1 F1200
G1 X112.621 Y92.885 E.02488
G1 X114.669 Y91.098 E.08522
G1 X117.303 Y89.483 E.09687
G1 X119.825 Y88.47 E.08522
G1 X122.106 Y87.923 E.07355
G1 X124.813 Y87.68 E.08522
G1 X127.525 Y87.864 E.08522
G1 X130.529 Y88.586 E.09687
G1 X133.029 Y89.653 E.08522
G1 X135.331 Y91.098 E.08522
G1 X137.115 Y92.621 E.07355
G1 X138.902 Y94.669 E.08522
G1 X140.517 Y97.303 E.09687
G1 X141.53 Y99.825 E.08522
G1 X142.077 Y102.106 E.07355
G1 X142.32 Y104.813 E.08522
G1 X142.136 Y107.525 E.08522
G1 X141.414 Y110.529 E.09687
G1 X140.347 Y113.029 E.08522
G1 X138.902 Y115.331 E.08522
G1 X137.379 Y117.115 E.07355
G1 X135.331 Y118.902 E.08522
G1 X132.697 Y120.517 E.09687
G1 X130.175 Y121.53 E.08522
G1 X127.894 Y122.077 E.07355
G1 X125.187 Y122.32 E.08522
G1 X122.475 Y122.136 E.08522
G1 X119.471 Y121.414 E.09687
G1 X116.971 Y120.347 E.08522
G1 X114.669 Y118.902 E.08522
G1 X112.885 Y117.379 E.07355
G1 X111.098 Y115.331 E.08522
G1 X109.483 Y112.697 E.09687
G1 X108.47 Y110.175 E.08522
G1 X107.923 Y107.894 E.07355
G1 X107.68 Y105.187 E.08522
G1 X107.864 Y102.475 E.08522
G1 X108.586 Y99.471 E.09687
G1 X109.653 Y96.971 E.08522
G1 X111.098 Y94.669 E.08522
G1 X112.067 Y93.534 E.0468
M204 S1000
; printing object 1_1_cone.stl id:0 copy 0
;WIPE_START
G1 F8640
G1 X112.621 Y92.885 E-.19705
G1 X114.458 Y91.282 E-.56295
;WIPE_END
G1 E-.04 F2100
G1 Z.6 F720
G1 X114.987 Y94.987 F10800
G1 Z.2 F720
G1 E.8 F2100
M204 S800
;TYPE:Perimeter
;WIDTH:0.419999
G1 F1200
G1 X116.677 Y93.544 E.06967
G1 X118.571 Y92.383 E.06967
G1 X120.624 Y91.533 E.06967
G1 X122.785 Y91.014 E.06967
G1 X125 Y90.84 E.06967
G1 X127.215 Y91.014 E.06967
G1 X129.376 Y91.533 E.06967
G1 X131.429 Y92.383 E.06967
G1 X133.323 Y93.544 E.06967
G1 X135.013 Y94.987 E.06967
G1 X136.456 Y96.677 E.06967
G1 X137.617 Y98.571 E.06967
G1 X138.467 Y100.624 E.06967
G1 X138.986 Y102.785 E.06967
G1 X139.16 Y105 E.06967
G1 X138.986 Y107.215 E.06967
G1 X138.467 Y109.376 E.06967
G1 X137.617 Y111.429 E.06967
G1 X136.456 Y113.323 E.06967
G1 X135.013 Y115.013 E.06967
G1 X133.323 Y116.456 E.06967
G1 X131.429 Y117.617 E.06967
G1 X129.376 Y118.467 E.06967
G1 X127.215 Y118.986 E.06967
G1 X125 Y119.16 E.06967
G1 X122.785 Y118.986 E.06967
G1 X120.624 Y118.467 E.06967
G1 X118.571 Y117.617 E.06967
G1 X116.677 Y116.456 E.06967
G1 X114.987 Y115.013 E.06967
G1 X113.544 Y113.323 E.06967
G1 X112.383 Y111.429 E.06967
G1 X111.533 Y109.376 E.06967
G1 X111.014 Y107.215 E.06967
G1 X110.84 Y105 E.06967
G1 X111.014 Y102.785 E.06967
G1 X111.533 Y100.624 E.06967
G1 X112.383 Y98.571 E.06967
G1 X113.544 Y96.677 E.06967
G1 X114.948 Y95.033 E.06779
M204 S1000
G1 X114.72 Y94.72 F10800
M204 S800
;TYPE:External perimeter
G1 F1200
G1 X116.454 Y93.238 E.07153
G1 X118.4 Y92.046 E.07153
G1 X120.507 Y91.173 E.07153
M73 Q2 S19
G1 X122.726 Y90.64 E.07153
G1 X125 Y90.461 E.07153
G1 X127.274 Y90.64 E.07153
M73 P2 R19
G1 X129.493 Y91.173 E.07153
G1 X131.6 Y92.046 E.07153
G1 X133.546 Y93.238 E.07153
G1 X135.28 Y94.72 E.07153
G1 X136.762 Y96.454 E.07153
G1 X137.954 Y98.4 E.07153
G1 X138.827 Y100.507 E.07153
G1 X139.36 Y102.726 E.07153
G1 X139.539 Y105 E.07153
G1 X139.36 Y107.274 E.07153
G1 X138.827 Y109.493 E.07153
G1 X137.954 Y111.6 E.07153
G1 X136.762 Y113.546 E.07153
G1 X135.28 Y115.28 E.07153
G1 X133.546 Y116.762 E.07153
G1 X131.6 Y117.954 E.07153
G1 X129.493 Y118.827 E.07153
G1 X127.274 Y119.36 E.07153
G1 X125 Y119.539 E.07153
G1 X122.726 Y119.36 E.07153
G1 X120.507 Y118.827 E.07153
G1 X118.4 Y117.954 E.07153
G1 X116.454 Y116.762 E.07153
G1 X114.72 Y115.28 E.07153
G1 X113.238 Y113.546 E.07153
G1 X112.046 Y111.6 E.07153
G1 X111.173 Y109.493 E.07153
G1 X110.64 Y107.274 E.07153
G1 X110.461 Y105 E.07153
G1 X110.64 Y102.726 E.07153
G1 X111.173 Y100.507 E.07153
G1 X112.046 Y98.4 E.07153
G1 X113.238 Y96.454 E.07153
G1 X114.681 Y94.765 E.06965
M204 S1000
G1 X115.106 Y94.823 F10800
;WIPE_START
G1 F8640
G1 X116.454 Y93.238 E-.54047
G1 X117.265 Y92.741 E-.21953
;WIPE_END
G1 E-.04 F2100
G1 Z.6 F720
G1 X133.273 Y93.65 F10800
G1 Z.2 F720
G1 E.8 F2100
M204 S800
;TYPE:Solid infill
;WIDTH:0.42308
G1 F1200
G1 X134.821 Y95.197 E.06917
G1 X136.227 Y96.843 E.06843
G1 X136.697 Y97.612 E.02848
G1 X132.388 Y93.303 E.19262
G1 X131.3 Y92.636 E.04035
G1 X131.102 Y92.554 E.00679
G1 X137.446 Y98.898 E.28364
G1 X137.827 Y99.816 E.0314
G1 X130.184 Y92.173 E.34166
G1 X129.271 Y91.798 E.03119
G1 X138.202 Y100.729 E.39923
G1 X138.372 Y101.436 E.023
G1 X128.564 Y91.628 E.43845
G1 X127.856 Y91.459 E.023
G1 X138.541 Y102.144 E.47767
G1 X138.707 Y102.847 E.02285
G1 X127.153 Y91.293 E.51655
G1 X126.569 Y91.247 E.0185
G1 X138.753 Y103.431 E.54469
G1 X138.799 Y104.015 E.0185
G1 X125.985 Y91.201 E.57283
G1 X125.402 Y91.155 E.0185
G1 X138.845 Y104.598 E.60097
G1 X138.877 Y105 E.01274
M73 P3 R19
M73 Q3 S19
G1 X138.865 Y105.155 E.00492
G1 X124.845 Y91.135 E.62674
G1 X124.346 Y91.175 E.0158
M73 P3 R18
G1 X138.825 Y105.654 E.64726
G1 X138.786 Y106.152 E.0158
G1 X123.848 Y91.214 E.66779
G1 X123.35 Y91.253 E.0158
M73 Q3 S18
G1 X138.747 Y106.65 E.68832
G1 X138.708 Y107.149 E.0158
G1 X122.851 Y91.292 E.70885
G1 X122.415 Y91.394 E.01416
G1 X138.606 Y107.585 E.72383
G1 X138.502 Y108.019 E.01409
G1 X121.981 Y91.498 E.73856
G1 X121.548 Y91.602 E.01409
G1 X138.398 Y108.452 E.75329
G1 X138.294 Y108.886 E.01409
G1 X121.114 Y91.706 E.76801
G1 X120.684 Y91.814 E.01401
G1 X138.186 Y109.316 E.7824
G1 X138.029 Y109.696 E.01301
M73 P4 R18
M73 Q4 S18
G1 X120.304 Y91.971 E.79235
G1 X119.924 Y92.129 E.01301
G1 X137.871 Y110.076 E.80231
G1 X137.714 Y110.456 E.01301
G1 X119.544 Y92.286 E.81227
G1 X119.164 Y92.444 E.01301
G1 X137.556 Y110.836 E.82222
G1 X137.399 Y111.216 E.01301
G1 X118.784 Y92.601 E.83218
G1 X118.44 Y92.795 E.01247
G1 X137.205 Y111.56 E.83887
G1 X137.001 Y111.893 E.01236
G1 X118.107 Y92.999 E.84464
G1 X117.773 Y93.204 E.01236
G1 X136.796 Y112.227 E.85041
G1 X136.592 Y112.56 E.01236
G1 X117.44 Y93.408 E.85618
G1 X117.107 Y93.612 E.01236
M73 P5 R18
M73 Q5 S18
G1 X136.388 Y112.893 E.86195
G1 X136.174 Y113.218 E.01227
G1 X116.782 Y93.826 E.8669
G1 X116.492 Y94.073 E.01205
G1 X135.927 Y113.508 E.86879
G1 X135.679 Y113.798 E.01205
G1 X116.202 Y94.321 E.87068
G1 X115.913 Y94.568 E.01205
G1 X135.432 Y114.087 E.87258
G1 X135.184 Y114.377 E.01205
G1 X115.623 Y94.816 E.87447
G1 X115.333 Y95.064 E.01205
G1 X134.936 Y114.667 E.87636
G1 X134.812 Y114.812 E.00603
G1 X134.667 Y114.936 E.00603
G1 X115.064 Y95.333 E.87636
G1 X114.816 Y95.623 E.01205
M73 P6 R18
M73 Q6 S18
G1 X134.377 Y115.184 E.87447
G1 X134.087 Y115.432 E.01205
G1 X114.568 Y95.913 E.87258
G1 X114.321 Y96.203 E.01205
G1 X133.797 Y115.679 E.87068
G1 X133.508 Y115.927 E.01205
G1 X114.073 Y96.492 E.86879
G1 X113.825 Y96.782 E.01205
G1 X133.218 Y116.175 E.8669
G1 X132.893 Y116.388 E.01227
G1 X113.612 Y97.107 E.86195
G1 X113.408 Y97.44 E.01236
G1 X132.56 Y116.592 E.85618
G1 X132.227 Y116.796 E.01236
G1 X113.204 Y97.773 E.85041
G1 X112.999 Y98.107 E.01236
G1 X131.893 Y117.001 E.84464
G1 X131.56 Y117.205 E.01236
M73 P7 R18
M73 Q7 S18
G1 X112.795 Y98.44 E.83887
G1 X112.601 Y98.784 E.01247
G1 X131.216 Y117.399 E.83217
G1 X130.836 Y117.556 E.01301
G1 X112.444 Y99.164 E.82222
G1 X112.286 Y99.544 E.01301
G1 X130.456 Y117.714 E.81226
G1 X130.076 Y117.871 E.01301
G1 X112.129 Y99.924 E.80231
G1 X111.971 Y100.304 E.01301
G1 X129.696 Y118.029 E.79235
G1 X129.315 Y118.186 E.01301
G1 X111.814 Y100.685 E.7824
G1 X111.706 Y101.114 E.01401
G1 X128.886 Y118.294 E.76801
G1 X128.452 Y118.398 E.01409
G1 X111.602 Y101.548 E.75328
G1 X111.498 Y101.981 E.01409
M73 P8 R18
M73 Q8 S18
G1 X128.019 Y118.502 E.73856
G1 X127.585 Y118.607 E.01409
G1 X111.393 Y102.415 E.72383
G1 X111.292 Y102.851 E.01416
M73 P8 R17
G1 X127.149 Y118.708 E.70884
G1 X126.65 Y118.747 E.0158
M73 Q8 S17
G1 X111.253 Y103.35 E.68832
G1 X111.214 Y103.848 E.0158
G1 X126.152 Y118.786 E.66779
G1 X125.653 Y118.825 E.0158
G1 X111.175 Y104.347 E.64726
G1 X111.135 Y104.845 E.0158
G1 X125.155 Y118.865 E.62673
G1 X125 Y118.877 E.00492
G1 X124.598 Y118.845 E.01275
G1 X111.155 Y105.402 E.60096
G1 X111.201 Y105.986 E.0185
G1 X124.014 Y118.799 E.57282
G1 X123.431 Y118.753 E.0185
G1 X111.247 Y106.569 E.54468
G1 X111.293 Y107.153 E.0185
M73 Q9 S17
G1 X122.847 Y118.707 E.51654
G1 X122.144 Y118.541 E.02285
M73 P9 R17
G1 X111.459 Y107.856 E.47767
G1 X111.628 Y108.564 E.023
G1 X121.436 Y118.372 E.43845
G1 X120.729 Y118.202 E.023
G1 X111.798 Y109.271 E.39923
G1 X112.173 Y110.184 E.03119
G1 X119.816 Y117.827 E.34165
G1 X118.898 Y117.446 E.0314
G1 X112.554 Y111.102 E.28363
G1 X112.636 Y111.3 E.00678
G1 X113.303 Y112.389 E.04036
G1 X117.611 Y116.697 E.19261
G1 X116.843 Y116.227 E.02847
G1 X115.197 Y114.82 E.06845
G1 X113.651 Y113.274 E.06912
M204 S1000
; stop printing object 1_1_cone.stl id:0 copy 0
M106 S84.15
;LAYER_CHANGE
;Z:0.5
;HEIGHT:0.3
;BEFORE_LAYER_CHANGE
G92 E0.0
;0.5


;WIPE_START
G1 F8640
G1 X115.197 Y114.82 E-.50493
G1 X116.037 Y115.538 E-.25507
;WIPE_END
G1 E-.04 F2100
G1 Z.6 F720
;AFTER_LAYER_CHANGE
;0.5
M104 S210 ; set temperature
G1 X113.599 Y118.464 F10800
G1 Z.5 F720
G1 E.8 F2100
;TYPE:Skirt/Brim
;WIDTH:0.42
G1 F2700
G1 X112.64 Y117.666 E.05533
G1 X110.811 Y115.576 E.12317
G1 X109.331 Y113.226 E.12317
G1 X108.104 Y110.263 E.14227
G1 X107.488 Y107.555 E.12317
G1 X107.304 Y105.216 E.10405
G1 X107.488 Y102.445 E.12317
G1 X108.237 Y99.326 E.14227
G1 X109.331 Y96.774 E.12317
G1 X110.557 Y94.774 E.10405
G1 X112.334 Y92.64 E.12317
G1 X114.424 Y90.811 E.12317
G1 X116.774 Y89.331 E.12317
G1 X119.737 Y88.104 E.14227
G1 X122.445 Y87.488 E.12317
G1 X124.784 Y87.304 E.10405
G1 X127.555 Y87.488 E.12317
G1 X130.674 Y88.237 E.14227
G1 X133.226 Y89.331 E.12317
G1 X135.226 Y90.557 E.10405
G1 X137.36 Y92.334 E.12317
G1 X139.189 Y94.424 E.12317
G1 X140.669 Y96.774 E.12317
G1 X141.896 Y99.737 E.14227
G1 X142.512 Y102.445 E.12317
G1 X142.696 Y104.784 E.10405
G1 X142.512 Y107.555 E.12317
G1 X141.763 Y110.674 E.14227
G1 X140.669 Y113.226 E.12317
G1 X139.443 Y115.226 E.10405
G1 X137.666 Y117.36 E.12317
G1 X135.576 Y119.189 E.12317
G1 X133.226 Y120.669 E.12317
G1 X130.263 Y121.896 E.14227
G1 X127.555 Y122.512 E.12317
G1 X125.216 Y122.696 E.10405
G1 X122.445 Y122.512 E.12317
G1 X119.326 Y121.763 E.14227
G1 X116.774 Y120.669 E.12317
G1 X114.774 Y119.443 E.10405
G1 X113.645 Y118.503 E.06518
G1 X113.879 Y118.228 F10800
G1 F2700
G1 X112.885 Y117.379 E.05799
G1 X111.098 Y115.331 E.12055
G1 X109.483 Y112.697 E.13704
G1 X108.47 Y110.175 E.12055
G1 X107.923 Y107.894 E.10405
G1 X107.68 Y105.187 E.12055
G1 X107.864 Y102.475 E.12055
G1 X108.586 Y99.471 E.13704
G1 X109.653 Y96.971 E.12055
G1 X111.098 Y94.669 E.12055
G1 X112.621 Y92.885 E.10405
G1 X114.669 Y91.098 E.12055
G1 X117.303 Y89.483 E.13704
G1 X119.825 Y88.47 E.12055
G1 X122.106 Y87.923 E.10405
G1 X124.813 Y87.68 E.12055
G1 X127.525 Y87.864 E.12055
G1 X130.529 Y88.586 E.13704
G1 X133.029 Y89.653 E.12055
G1 X135.331 Y91.098 E.12055
G1 X137.115 Y92.621 E.10405
G1 X138.902 Y94.669 E.12055
G1 X140.517 Y97.303 E.13704
G1 X141.53 Y99.825 E.12055
G1 X142.077 Y102.106 E.10405
G1 X142.32 Y104.813 E.12055
G1 X142.136 Y107.525 E.12055
G1 X141.414 Y110.529 E.13704
G1 X140.347 Y113.029 E.12055
G1 X138.902 Y115.331 E.12055
G1 X137.379 Y117.115 E.10405
G1 X135.331 Y118.902 E.12055
G1 X132.697 Y120.517 E.13704
G1 X130.175 Y121.53 E.12055
G1 X127.894 Y122.077 E.10405
G1 X125.187 Y122.32 E.12055
G1 X122.475 Y122.136 E.12055
G1 X119.471 Y121.414 E.13704
G1 X116.971 Y120.347 E.12055
G1 X114.669 Y118.902 E.12055
G1 X113.925 Y118.267 E.0434
; printing object 1_1_cone.stl id:0 copy 0
;WIPE_START
G1 F8640
G1 X112.885 Y117.379 E-.31575
G1 X111.62 Y115.929 E-.44425
;WIPE_END
G1 E-.04 F2100
G1 Z.9 F720
G1 X116.749 Y116.356 F10800
G1 Z.5 F720
G1 E.8 F2100
M204 S800
;TYPE:Perimeter
;WIDTH:0.5
G1 F3000
G1 X115.074 Y114.926 E.11968
G1 X113.644 Y113.251 E.11968
G1 X112.493 Y111.373 E.11968
G1 X111.65 Y109.338 E.11968
G1 X111.136 Y107.196 E.11968
G1 X110.963 Y105 E.11968
G1 X111.136 Y102.804 E.11968
G1 X111.65 Y100.662 E.11968
G1 X112.493 Y98.627 E.11968
G1 X113.644 Y96.749 E.11968
G1 X115.074 Y95.074 E.11968
G1 X116.749 Y93.644 E.11968
G1 X118.627 Y92.493 E.11968
G1 X120.662 Y91.65 E.11968
G1 X122.804 Y91.136 E.11968
G1 X125 Y90.963 E.11968
G1 X127.196 Y91.136 E.11968
G1 X129.338 Y91.65 E.11968
G1 X131.373 Y92.493 E.11968
G1 X133.251 Y93.644 E.11968
G1 X134.926 Y95.074 E.11968
G1 X136.356 Y96.749 E.11968
G1 X137.507 Y98.627 E.11968
G1 X138.35 Y100.662 E.11968
G1 X138.864 Y102.804 E.11968
G1 X139.037 Y105 E.11968
G1 X138.864 Y107.196 E.11968
M73 Q10 S17
G1 X138.35 Y109.338 E.11968
G1 X137.507 Y111.373 E.11968
G1 X136.356 Y113.251 E.11968
G1 X134.926 Y114.926 E.11968
M73 P10 R17
G1 X133.251 Y116.356 E.11968
G1 X131.373 Y117.507 E.11968
G1 X129.338 Y118.35 E.11968
G1 X127.196 Y118.864 E.11968
G1 X125 Y119.037 E.11968
G1 X122.804 Y118.864 E.11968
G1 X120.662 Y118.35 E.11968
G1 X118.627 Y117.507 E.11968
G1 X116.8 Y116.387 E.11642
M204 S1000
G1 X116.463 Y116.75 F10800
M204 S800
;TYPE:External perimeter
;WIDTH:0.6
G1 F2100
G1 X114.73 Y115.27 E.15226
G1 X113.25 Y113.537 E.15226
G1 X112.059 Y111.594 E.15226
G1 X111.187 Y109.488 E.15226
G1 X110.655 Y107.272 E.15226
G1 X110.476 Y105 E.15225
G1 X110.655 Y102.728 E.15225
G1 X111.187 Y100.512 E.15226
G1 X112.059 Y98.406 E.15226
G1 X113.25 Y96.463 E.15226
G1 X114.73 Y94.73 E.15226
G1 X116.463 Y93.25 E.15226
G1 X118.406 Y92.059 E.15226
G1 X120.512 Y91.187 E.15226
G1 X122.728 Y90.655 E.15226
G1 X125 Y90.476 E.15225
G1 X127.272 Y90.655 E.15225
G1 X129.488 Y91.187 E.15226
G1 X131.594 Y92.059 E.15226
G1 X133.537 Y93.25 E.15226
