; generated by PrusaSlicer 2.5.0+win64 on 2023-01-23 at 19:28:03 UTC

; 

; external perimeters extrusion width = 0.45mm
; perimeters extrusion width = 0.45mm
; infill extrusion width = 0.45mm
; solid infill extrusion width = 0.45mm
; top infill extrusion width = 0.40mm
; support material extrusion width = 0.35mm
; first layer extrusion width = 0.42mm

M73 P0 R7
M73 Q0 S7
M107
;TYPE:Custom
M862.3 P "MK3S" ; printer model check
M862.1 P0.4 ; nozzle diameter check
M115 U3.10.0 ; tell printer latest fw version
G90 ; use absolute coordinates
M83 ; extruder relative mode
M104 S215 ; set extruder temp
M140 S60 ; set bed temp
M190 S60 ; wait for bed temp
M109 S215 ; wait for extruder temp
G28 W ; home all without mesh bed level
G80 ; mesh bed leveling
G1 Z0.2 F720
G1 Y-3 F1000 ; go outside print area
G92 E0
G1 X60 E9 F1000 ; intro line
G1 X100 E12.5 F1000 ; intro line
G92 E0
M221 S95

; Don't change E values below. Excessive value can damage the printer.
M907 E430 ; set extruder motor current
G21 ; set units to millimeters
G90 ; use absolute coordinates
M83 ; use relative distances for extrusion
M900 K0.05 ; Filament gcode LA 1.5
M900 K30 ; Filament gcode LA 1.0
M107
;LAYER_CHANGE
;Z:0.2
;HEIGHT:0.2
;BEFORE_LAYER_CHANGE
G92 E0.0
;0.2


G1 E-.8 F2100
M73 P1 R7
M73 Q1 S7
G1 Z.4 F720
;AFTER_LAYER_CHANGE
;0.2
G1 X115.081 Y96.025 F10800
G1 Z.2 F720
G1 E.8 F2100
M204 S800
;TYPE:Skirt/Brim
;WIDTH:0.42
G1 F1200
G1 X116.147 Y95.012 E.04612
G1 X117.442 Y94.688 E.04186
G1 X132.558 Y94.688 E.47393
G1 X133.975 Y95.081 E.04612
G1 X134.988 Y96.147 E.04612
G1 X135.312 Y97.442 E.04186
G1 X135.312 Y112.558 E.47393
G1 X134.919 Y113.975 E.04612
G1 X133.853 Y114.988 E.04612
G1 X132.558 Y115.312 E.04186
G1 X117.442 Y115.312 E.47393
M73 Q2 S7
G1 X116.025 Y114.919 E.04612
M73 P2 R7
G1 X115.012 Y113.853 E.04612
G1 X114.688 Y112.558 E.04186
G1 X114.688 Y97.442 E.47393
G1 X115.065 Y96.083 E.04424
M204 S1000
G1 X115.439 Y96.195 F10800
M204 S800
G1 F1200
G1 X115.457 Y96.135 E.00195
G1 X116.503 Y95.259 E.04278
G1 X117.442 Y95.065 E.03008
G1 X132.558 Y95.065 E.47393
G1 X133.865 Y95.457 E.04278
G1 X134.741 Y96.503 E.04278
G1 X134.935 Y97.442 E.03008
G1 X134.935 Y112.558 E.47393
G1 X134.543 Y113.865 E.04278
G1 X133.497 Y114.741 E.04278
G1 X132.558 Y114.935 E.03008
G1 X117.442 Y114.935 E.47393
G1 X116.135 Y114.543 E.04278
G1 X115.259 Y113.497 E.04278
G1 X115.065 Y112.558 E.03008
G1 X115.065 Y97.442 E.47393
G1 X115.422 Y96.252 E.03895
M204 S1000
; printing object bead.stl id:0 copy 0
;WIPE_START
M73 P3 R7
M73 Q3 S7
G1 F8640
G1 X115.457 Y96.135 E-.0282
G1 X116.503 Y95.259 E-.31505
G1 X117.442 Y95.065 E-.22155
G1 X118.288 Y95.065 E-.1952
;WIPE_END
G1 E-.04 F2100
G1 Z.6 F720
G1 X122.818 Y100.386 F10800
G1 Z.2 F720
G1 E.8 F2100
M204 S800
;TYPE:Support material interface
;WIDTH:0.35
G1 F1200
G1 X122.693 Y100.386 E.0032
G1 X122.693 Y102.693 E.05891
G1 X122.465 Y102.693 E.00583
G1 X122.465 Y107.307 E.11782
G1 X121.958 Y107.307 E.01295
G1 X121.958 Y102.693 E.11782
G1 X121.45 Y102.693 E.01295
G1 X121.45 Y107.307 E.11782
G1 X120.943 Y107.307 E.01295
G1 X120.943 Y102.693 E.11782
G1 X120.436 Y102.693 E.01295
G1 X120.436 Y107.307 E.11782
M204 S1000
;WIPE_START
G1 F8640
G1 X120.436 Y104.016 E-.76
;WIPE_END
G1 E-.04 F2100
G1 Z.6 F720
G1 X122.71 Y105.708 F10800
G1 Z.2 F720
G1 E.8 F2100
M204 S800
G1 F1200
G1 X122.856 Y106.074 E.01005
G1 X122.972 Y106.268 E.00577
G1 X122.972 Y109.614 E.08545
G1 X123.479 Y109.614 E.01295
G1 X123.479 Y106.846 E.07068
G1 X123.604 Y106.95 E.00415
G1 X123.986 Y107.169 E.01124
G1 X123.986 Y109.614 E.06244
G1 X124.493 Y109.614 E.01295
G1 X124.493 Y107.338 E.05812
G1 X124.641 Y107.371 E.00388
G1 X125 Y107.398 E.00918
G1 X125 Y109.614 E.05659
G1 X125.507 Y109.614 E.01295
G1 X125.507 Y107.338 E.05812
G1 X125.757 Y107.275 E.00657
G1 X126.014 Y107.169 E.00711
G1 X126.014 Y109.614 E.06244
G1 X126.521 Y109.614 E.01295
G1 X126.521 Y106.846 E.07068
G1 X126.707 Y106.684 E.00631
G1 X126.93 Y106.423 E.00876
G1 X127.028 Y106.268 E.00469
G1 X127.028 Y109.614 E.08545
G1 X127.307 Y109.614 E.00712
G1 X127.307 Y107.307 E.05891
M73 Q4 S7
G1 X127.535 Y107.307 E.00583
G1 X127.535 Y102.693 E.11782
G1 X128.042 Y102.693 E.01295
M73 P4 R7
G1 X128.042 Y107.307 E.11782
G1 X128.55 Y107.307 E.01295
G1 X128.55 Y102.693 E.11782
G1 X129.057 Y102.693 E.01295
G1 X129.057 Y107.307 E.11782
G1 X129.564 Y107.307 E.01295
G1 X129.564 Y102.693 E.11782
M204 S1000
;WIPE_START
G1 F8640
G1 X129.564 Y105.984 E-.76
;WIPE_END
G1 E-.04 F2100
G1 Z.6 F720
G1 X127.382 Y102.693 F10800
G1 Z.2 F720
G1 E.8 F2100
M204 S800
G1 F1200
G1 X127.307 Y102.693 E.00191
G1 X127.307 Y100.386 E.05891
G1 X127.028 Y100.386 E.00712
G1 X127.028 Y103.732 E.08545
G1 X126.93 Y103.577 E.00469
G1 X126.707 Y103.316 E.00876
G1 X126.521 Y103.154 E.00631
G1 X126.521 Y100.386 E.07068
G1 X126.014 Y100.386 E.01295
G1 X126.014 Y102.831 E.06244
G1 X125.757 Y102.725 E.00711
G1 X125.507 Y102.662 E.00657
G1 X125.507 Y100.386 E.05812
G1 X125 Y100.386 E.01295
G1 X125 Y102.602 E.05659
G1 X124.641 Y102.629 E.00918
G1 X124.493 Y102.662 E.00388
G1 X124.493 Y100.386 E.05812
G1 X123.986 Y100.386 E.01295
G1 X123.986 Y102.831 E.06244
G1 X123.604 Y103.05 E.01124
G1 X123.479 Y103.154 E.00415
G1 X123.479 Y100.386 E.07068
G1 X122.972 Y100.386 E.01295
G1 X122.972 Y103.732 E.08545
G1 X122.856 Y103.926 E.00577
G1 X122.71 Y104.292 E.01005
M204 S1000
M204 S800
G1 X122.629 Y104.641 E.00917
M204 S1000
;WIPE_START
G1 F8640
G1 X122.71 Y104.292 E-.08289
;WIPE_END
G1 E-.71711 F2100
G1 Z.6 F720
G1 X125.04 Y102.969 F10800
G1 Z.2 F720
G1 E.8 F2100
M204 S800
;TYPE:Support material
;WIDTH:0.42
G1 F1200
G1 X125.321 Y102.991 E.00881
G1 X125.626 Y103.065 E.00986
G1 X125.921 Y103.186 E.01001
G1 X126.198 Y103.356 E.01016
G1 X126.44 Y103.563 E.01001
G1 X126.647 Y103.806 E.01001
G1 X126.814 Y104.079 E.01001
G1 X126.934 Y104.369 E.00986
G1 X127.01 Y104.684 E.01016
G1 X127.034 Y105.002 E.01001
G1 X127 Y105.358 E.01119
G1 X126.934 Y105.631 E.00881
G1 X126.814 Y105.921 E.00986
G1 X126.644 Y106.198 E.01016
G1 X126.437 Y106.44 E.01001
G1 X126.194 Y106.647 E.01001
G1 X125.921 Y106.814 E.01001
G1 X125.631 Y106.934 E.00986
G1 X125.321 Y107.009 E.01001
G1 X124.998 Y107.034 E.01016
G1 X124.679 Y107.009 E.01001
G1 X124.369 Y106.934 E.01001
G1 X124.079 Y106.814 E.00986
G1 X123.839 Y106.667 E.00881
G1 X123.563 Y106.44 E.01119
G1 X123.353 Y106.194 E.01016
G1 X123.186 Y105.921 E.01001
G1 X123.066 Y105.631 E.00986
G1 X123 Y105.358 E.00881
G1 X122.966 Y105.002 E.01119
G1 X122.99 Y104.684 E.01001
G1 X123.066 Y104.369 E.01016
G1 X123.186 Y104.079 E.00986
G1 X123.333 Y103.839 E.00881
G1 X123.56 Y103.563 E.01119
G1 X123.806 Y103.353 E.01016
G1 X124.079 Y103.186 E.01001
G1 X124.374 Y103.065 E.01001
G1 X124.679 Y102.991 E.00986
G1 X124.984 Y102.967 E.00958
M204 S1000
G1 X124.981 Y103.127 F10800
M204 S800
G1 F1200
G1 X124.688 Y103.153 E.00922
G1 X124.439 Y103.212 E.00804
G1 X124.166 Y103.322 E.00922
G1 X123.914 Y103.473 E.00922
G1 X123.662 Y103.689 E.0104
G1 X123.495 Y103.884 E.00804
G1 X123.397 Y104.039 E.00577
G1 X123.322 Y104.166 E.00463
G1 X123.224 Y104.403 E.00804
G1 X123.153 Y104.688 E.00922
M73 Q5 S7
G1 X123.127 Y105.019 E.0104
G1 X123.153 Y105.312 E.00922
G1 X123.212 Y105.561 E.00804
G1 X123.322 Y105.834 E.00922
G1 X123.473 Y106.086 E.00922
G1 X123.689 Y106.338 E.0104
G1 X123.914 Y106.527 E.00922
G1 X124.166 Y106.678 E.00922
G1 X124.439 Y106.788 E.00922
G1 X124.688 Y106.847 E.00804
G1 X124.981 Y106.873 E.00922
G1 X125.312 Y106.847 E.0104
G1 X125.597 Y106.776 E.00922
G1 X125.867 Y106.661 E.00922
G1 X126.086 Y106.527 E.00804
G1 X126.311 Y106.338 E.00922
G1 X126.527 Y106.086 E.0104
G1 X126.678 Y105.834 E.00922
G1 X126.776 Y105.597 E.00804
M73 P5 R7
G1 X126.822 Y105.419 E.00577
G1 X126.853 Y105.274 E.00463
G1 X126.873 Y105.019 E.00804
G1 X126.853 Y104.726 E.00922
G1 X126.776 Y104.403 E.0104
G1 X126.661 Y104.133 E.00922
G1 X126.527 Y103.914 E.00804
G1 X126.338 Y103.689 E.00922
G1 X126.116 Y103.495 E.00922
G1 X125.834 Y103.322 E.0104
G1 X125.561 Y103.212 E.00922
G1 X125.312 Y103.153 E.00804
G1 X125.038 Y103.128 E.00863
M204 S1000
;WIPE_START
G1 F8640
G1 X125.312 Y103.153 E-.06353
G1 X125.561 Y103.212 E-.0592
G1 X125.834 Y103.322 E-.06789
G1 X126.116 Y103.495 E-.07656
G1 X126.338 Y103.689 E-.06789
G1 X126.527 Y103.914 E-.06788
G1 X126.661 Y104.133 E-.0592
G1 X126.776 Y104.403 E-.06788
G1 X126.853 Y104.726 E-.07656
G1 X126.873 Y105.019 E-.06789
G1 X126.853 Y105.274 E-.0592
G1 X126.829 Y105.386 E-.02632
;WIPE_END
G1 E-.04 F2100
G1 Z.6 F720
G1 X127.371 Y105.359 F10800
G1 Z.2 F720
G1 E.8 F2100
M204 S800
;TYPE:Support material interface
;WIDTH:0.35
G1 F1200
G1 X127.29 Y105.708 E.00917
M204 S1000
;WIPE_START
G1 F8640
G1 X127.371 Y105.359 E-.08289
;WIPE_END
G1 E-.71711 F2100
G1 Z.6 F720
G1 X132.558 Y112.558 F10800
G1 Z.2 F720
G1 E.8 F2100
M204 S800
;TYPE:Support material
;WIDTH:0.42
G1 F1200
G1 X117.442 Y112.558 E.47393
G1 X117.442 Y97.442 E.47393
G1 X132.558 Y97.442 E.47393
G1 X132.558 Y112.501 E.47215
M204 S1000
;WIPE_START
G1 F8640
G1 X132.558 Y109.21 E-.76
;WIPE_END
G1 E-.04 F2100
G1 Z.6 F720
G1 X122.329 Y102.329 F10800
G1 Z.2 F720
G1 E.8 F2100
M204 S800
M73 Q6 S7
G1 F1200
G1 X120.022 Y102.329 E.07234
G1 X120.022 Y107.671 E.16748
G1 X122.329 Y107.671 E.07234
M73 P6 R7
G1 X122.329 Y109.978 E.07234
G1 X127.671 Y109.978 E.16748
G1 X127.671 Y107.671 E.07234
G1 X129.978 Y107.671 E.07234
G1 X129.978 Y102.329 E.16748
G1 X127.671 Y102.329 E.07234
G1 X127.671 Y100.022 E.07234
G1 X122.329 Y100.022 E.16748
G1 X122.329 Y102.273 E.07056
M204 S1000
;WIPE_START
G1 F8640
G1 X122.329 Y100.022 E-.51965
G1 X123.37 Y100.022 E-.24035
;WIPE_END
G1 E-.04 F2100
G1 Z.6 F720
G1 X132.123 Y112.388 F10800
G1 Z.2 F720
G1 E.8 F2100
M204 S800
G1 F1200
G1 X132.123 Y97.782 E.45797
G1 X131.704 Y97.782 E.01314
G1 X131.704 Y112.218 E.45265
G1 X131.285 Y112.218 E.01314
G1 X131.285 Y97.782 E.45265
G1 X130.866 Y97.782 E.01314
M73 Q7 S7
G1 X130.866 Y112.218 E.45265
G1 X130.447 Y112.218 E.01314
M73 P7 R7
G1 X130.447 Y97.782 E.45265
G1 X130.028 Y97.782 E.01314
G1 X130.028 Y101.99 E.13194
G1 X129.609 Y101.99 E.01314
G1 X129.609 Y97.782 E.13194
G1 X129.19 Y97.782 E.01314
G1 X129.19 Y101.99 E.13194
G1 X128.771 Y101.99 E.01314
G1 X128.771 Y97.782 E.13194
G1 X128.352 Y97.782 E.01314
G1 X128.352 Y101.99 E.13194
G1 X128.01 Y101.99 E.01071
G1 X128.01 Y99.683 E.07234
G1 X127.933 Y99.683 E.00242
G1 X127.933 Y97.782 E.05961
G1 X127.514 Y97.782 E.01314
G1 X127.514 Y99.683 E.05961
G1 X127.095 Y99.683 E.01314
G1 X127.095 Y97.782 E.05961
G1 X126.676 Y97.782 E.01314
G1 X126.676 Y99.683 E.05961
G1 X126.257 Y99.683 E.01314
G1 X126.257 Y97.782 E.05961
G1 X125.838 Y97.782 E.01314
G1 X125.838 Y99.683 E.05961
G1 X125.419 Y99.683 E.01314
G1 X125.419 Y97.782 E.05961
G1 X125 Y97.782 E.01314
G1 X125 Y99.683 E.05961
G1 X124.581 Y99.683 E.01314
G1 X124.581 Y97.782 E.05961
G1 X124.162 Y97.782 E.01314
G1 X124.162 Y99.683 E.05961
G1 X123.743 Y99.683 E.01314
G1 X123.743 Y97.782 E.05961
G1 X123.324 Y97.782 E.01314
G1 X123.324 Y99.683 E.05961
G1 X122.905 Y99.683 E.01314
G1 X122.905 Y97.782 E.05961
G1 X122.486 Y97.782 E.01314
M73 Q8 S7
G1 X122.486 Y99.683 E.05961
G1 X122.067 Y99.683 E.01314
G1 X122.067 Y97.782 E.05961
G1 X121.648 Y97.782 E.01314
M73 P8 R7
G1 X121.648 Y101.99 E.13194
G1 X121.229 Y101.99 E.01314
G1 X121.229 Y97.782 E.13194
G1 X120.81 Y97.782 E.01314
G1 X120.81 Y101.99 E.13194
G1 X120.391 Y101.99 E.01314
G1 X120.391 Y97.782 E.13194
G1 X119.972 Y97.782 E.01314
G1 X119.972 Y101.99 E.13194
G1 X119.683 Y101.99 E.00908
G1 X119.683 Y108.01 E.18876
G1 X119.972 Y108.01 E.00908
G1 X119.972 Y112.218 E.13194
G1 X120.391 Y112.218 E.01314
G1 X120.391 Y108.01 E.13194
G1 X120.81 Y108.01 E.01314
G1 X120.81 Y112.218 E.13194
G1 X121.229 Y112.218 E.01314
G1 X121.229 Y108.01 E.13194
G1 X121.648 Y108.01 E.01314
G1 X121.648 Y112.218 E.13194
G1 X122.067 Y112.218 E.01314
G1 X122.067 Y110.317 E.05961
G1 X122.486 Y110.317 E.01314
G1 X122.486 Y112.218 E.05961
G1 X122.905 Y112.218 E.01314
G1 X122.905 Y110.317 E.05961
G1 X123.324 Y110.317 E.01314
G1 X123.324 Y112.218 E.05961
G1 X123.743 Y112.218 E.01314
G1 X123.743 Y110.317 E.05961
G1 X124.162 Y110.317 E.01314
G1 X124.162 Y112.218 E.05961
G1 X124.581 Y112.218 E.01314
G1 X124.581 Y110.317 E.05961
G1 X125 Y110.317 E.01314
G1 X125 Y112.218 E.05961
G1 X125.419 Y112.218 E.01314
G1 X125.419 Y110.317 E.05961
G1 X125.838 Y110.317 E.01314
G1 X125.838 Y112.218 E.05961
G1 X126.257 Y112.218 E.01314
G1 X126.257 Y110.317 E.05961
G1 X126.676 Y110.317 E.01314
G1 X126.676 Y112.218 E.05961
G1 X127.095 Y112.218 E.01314
G1 X127.095 Y110.317 E.05961
G1 X127.514 Y110.317 E.01314
M73 Q9 S7
G1 X127.514 Y112.218 E.05961
G1 X127.933 Y112.218 E.01314
G1 X127.933 Y110.317 E.05961
M73 P9 R7
G1 X128.01 Y110.317 E.00242
G1 X128.01 Y108.01 E.07234
G1 X128.352 Y108.01 E.01071
G1 X128.352 Y112.218 E.13194
G1 X128.771 Y112.218 E.01314
G1 X128.771 Y108.01 E.13194
G1 X129.19 Y108.01 E.01314
G1 X129.19 Y112.218 E.13194
G1 X129.609 Y112.218 E.01314
G1 X129.609 Y108.01 E.13194
G1 X130.028 Y108.01 E.01314
G1 X130.028 Y112.388 E.13726
M204 S1000
G1 X119.553 Y112.388 F10800
M204 S800
G1 F1200
G1 X119.553 Y97.782 E.45797
G1 X119.134 Y97.782 E.01314
G1 X119.134 Y112.218 E.45265
G1 X118.715 Y112.218 E.01314
G1 X118.715 Y97.782 E.45265
G1 X118.296 Y97.782 E.01314
G1 X118.296 Y112.218 E.45265
G1 X117.877 Y112.218 E.01314
M73 Q10 S7
G1 X117.877 Y97.612 E.45797
M204 S1000
;WIPE_START
G1 F8640
M73 P10 R7
G1 X117.877 Y100.904 E-.76
;WIPE_END
G1 E-.04 F2100
G1 Z.6 F720
G1 X124.474 Y106.065 F10800
G1 Z.2 F720
G1 E.8 F2100
M204 S800
;TYPE:External perimeter
;WIDTH:0.38292
G1 F1200
G1 X124.16 Y105.841 E.0109
G1 X123.919 Y105.489 E.01205
;WIDTH:0.391188
G1 X123.804 Y105 E.01455
G1 X123.919 Y104.511 E.01456
;WIDTH:0.38292
G1 X124.16 Y104.159 E.01205
G1 X124.495 Y103.926 E.01153
;WIDTH:0.387394
G1 X124.945 Y103.812 E.01329
;WIDTH:0.390232
G1 X125.342 Y103.857 E.01155
G1 X125.678 Y104.019 E.01078
;WIDTH:0.38883
G1 X125.84 Y104.16 E.00618
;WIDTH:0.38292
G1 X126.081 Y104.511 E.01203
;WIDTH:0.391184
G1 X126.196 Y105 E.01455
;WIDTH:0.413916
G1 X126.126 Y105.366 E.01149
G1 X125.961 Y105.699 E.01147
;WIDTH:0.405182
G1 X125.699 Y105.962 E.01119
;WIDTH:0.403476
G1 X125.381 Y106.132 E.01081
;WIDTH:0.389634
G1 X125.027 Y106.193 E.01036
;WIDTH:0.388838
G1 X124.673 Y106.146 E.01026
;WIDTH:0.387668
G1 X124.529 Y106.088 E.00445
M204 S1000
; stop printing object bead.stl id:0 copy 0
M106 S84.15
;LAYER_CHANGE
;Z:0.4
;HEIGHT:0.2
;BEFORE_LAYER_CHANGE
G92 E0.0
;0.4


;WIPE_START
G1 F8640
G1 X124.16 Y105.841 E-.10253
G1 X123.919 Y105.489 E-.09842
G1 X123.804 Y105 E-.11605
G1 X123.919 Y104.511 E-.11608
G1 X124.16 Y104.159 E-.09842
G1 X124.495 Y103.926 E-.09419
G1 X124.945 Y103.812 E-.1071
G1 X125.062 Y103.825 E-.02719
;WIPE_END
G1 E-.04 F2100
G1 Z.6 F720
;AFTER_LAYER_CHANGE
;0.4
M104 S210 ; set temperature
G1 X125.062 Y94.688 F10800
G1 Z.4 F720
G1 E.8 F2100
;TYPE:Skirt/Brim
;WIDTH:0.42
G1 F1391
G1 X132.558 Y94.688 E.23503
G1 X133.975 Y95.081 E.04612
G1 X134.988 Y96.147 E.04612
G1 X135.312 Y97.442 E.04186
G1 X135.312 Y112.558 E.47393
G1 X134.919 Y113.975 E.04612
G1 X133.853 Y114.988 E.04612
G1 X132.558 Y115.312 E.04186
G1 X117.442 Y115.312 E.47393
G1 X116.025 Y114.919 E.04612
G1 X115.012 Y113.853 E.04612
G1 X114.688 Y112.558 E.04186
G1 X114.688 Y97.442 E.47393
G1 X115.081 Y96.025 E.04612
M73 P11 R7
M73 Q11 S7
G1 X116.147 Y95.012 E.04612
G1 X117.442 Y94.688 E.04186
G1 X125.002 Y94.688 E.23702
G1 X125.002 Y95.065 F10800
G1 F1391
G1 X132.558 Y95.065 E.23691
G1 X133.865 Y95.457 E.04278
G1 X134.741 Y96.503 E.04278
G1 X134.935 Y97.442 E.03008
G1 X134.935 Y112.558 E.47393
G1 X134.543 Y113.865 E.04278
G1 X133.497 Y114.741 E.04278
G1 X132.558 Y114.935 E.03008
G1 X117.442 Y114.935 E.47393
G1 X116.135 Y114.543 E.04278
G1 X115.259 Y113.497 E.04278
G1 X115.065 Y112.558 E.03008
G1 X115.065 Y97.442 E.47393
G1 X115.457 Y96.135 E.04278
G1 X116.503 Y95.259 E.04278
G1 X117.442 Y95.065 E.03008
G1 X124.942 Y95.065 E.23514
; printing object bead.stl id:0 copy 0
;WIPE_START
G1 F8640
G1 X128.233 Y95.065 E-.76
;WIPE_END
G1 E-.04 F2100
G1 Z.8 F720
G1 X122.818 Y100.386 F10800
G1 Z.4 F720
G1 E.8 F2100
