; generated by PrusaSlicer 2.5.0+win64 on 2023-01-24 at 16:03:22 UTC

; 

; external perimeters extrusion width = 0.45mm
; perimeters extrusion width = 0.45mm
; infill extrusion width = 0.45mm
; solid infill extrusion width = 0.45mm
; top infill extrusion width = 0.40mm
; first layer extrusion width = 0.42mm

M73 P0 R14
M73 Q0 S14
M107
;TYPE:Custom
M862.3 P "MK3S" ; printer model check
M862.1 P0.4 ; nozzle diameter check
M115 U3.10.0 ; tell printer latest fw version
G90 ; use absolute coordinates
M83 ; extruder relative mode
M104 S215 ; set extruder temp
M140 S60 ; set bed temp
M190 S60 ; wait for bed temp
M109 S215 ; wait for extruder temp
G28 W ; home all without mesh bed level
G80 ; mesh bed leveling
G1 Z0.2 F720
G1 Y-3 F1000 ; go outside print area
G92 E0
G1 X60 E9 F1000 ; intro line
G1 X100 E12.5 F1000 ; intro line
G92 E0
M221 S95

; Don't change E values below. Excessive value can damage the printer.
M907 E430 ; set extruder motor current
G21 ; set units to millimeters
G90 ; use absolute coordinates
M83 ; use relative distances for extrusion
M900 K0.05 ; Filament gcode LA 1.5
M900 K30 ; Filament gcode LA 1.0
M107
;LAYER_CHANGE
;Z:0.2
;HEIGHT:0.2
;BEFORE_LAYER_CHANGE
G92 E0.0
;0.2


G1 E-.8 F2100
G1 Z.4 F720
;AFTER_LAYER_CHANGE
;0.2
G1 X120.369 Y101.258 F10800
G1 Z.2 F720
G1 E.8 F2100
M204 S800
;TYPE:Skirt/Brim
;WIDTH:0.42
G1 F900
G1 X121.011 Y100.58 E.02929
G1 X121.752 Y100.01 E.02929
G1 X122.873 Y99.439 E.03945
G1 X124.371 Y99.08 E.04831
G1 X125.398 Y99.061 E.0322
G1 X126.547 Y99.251 E.03653
G1 X127.428 Y99.564 E.02929
G1 X128.742 Y100.369 E.04831
G1 X129.42 Y101.011 E.02929
G1 X129.99 Y101.752 E.02929
G1 X130.561 Y102.873 E.03945
G1 X130.92 Y104.371 E.04831
G1 X130.946 Y105.305 E.02929
G1 X130.749 Y106.547 E.03945
M73 Q1 S14
G1 X130.436 Y107.428 E.02929
M73 P0 R13
G1 X129.631 Y108.742 E.04831
G1 X128.989 Y109.42 E.02929
G1 X128.248 Y109.99 E.02929
M73 P1 R13
G1 X127.127 Y110.561 E.03945
G1 X125.629 Y110.92 E.04831
G1 X124.695 Y110.946 E.02929
G1 X123.453 Y110.749 E.03945
G1 X122.572 Y110.436 E.02929
G1 X121.258 Y109.631 E.04831
G1 X120.58 Y108.989 E.02929
G1 X120.01 Y108.248 E.02929
G1 X119.439 Y107.127 E.03945
G1 X119.08 Y105.629 E.04831
G1 X119.054 Y104.695 E.02929
G1 X119.251 Y103.453 E.03945
G1 X119.564 Y102.572 E.02929
G1 X120.337 Y101.31 E.04643
M204 S1000
G1 X120.655 Y101.504 F10800
M204 S800
G1 F900
G1 X121.256 Y100.867 E.02747
G1 X121.949 Y100.332 E.02744
G1 X123.017 Y99.788 E.03759
G1 X124.401 Y99.456 E.04461
G1 X125.368 Y99.437 E.03035
G1 X126.459 Y99.618 E.03468
G1 X127.284 Y99.912 E.02744
G1 X128.497 Y100.656 E.04461
M73 Q1 S13
G1 X129.133 Y101.256 E.02744
G1 X129.668 Y101.949 E.02744
G1 X130.212 Y103.017 E.03759
G1 X130.544 Y104.401 E.04461
G1 X130.57 Y105.275 E.02744
G1 X130.382 Y106.459 E.03759
G1 X130.088 Y107.284 E.02744
G1 X129.344 Y108.497 E.04461
G1 X128.744 Y109.133 E.02744
G1 X128.051 Y109.668 E.02744
G1 X126.983 Y110.212 E.03759
G1 X125.599 Y110.544 E.04461
G1 X124.725 Y110.57 E.02744
G1 X123.541 Y110.382 E.03759
G1 X122.716 Y110.088 E.02744
G1 X121.503 Y109.344 E.04461
G1 X120.867 Y108.744 E.02744
G1 X120.332 Y108.051 E.02744
G1 X119.788 Y106.983 E.03759
G1 X119.456 Y105.599 E.04461
G1 X119.43 Y104.725 E.02744
G1 X119.618 Y103.541 E.03759
G1 X119.912 Y102.716 E.02744
G1 X120.624 Y101.555 E.0427
M204 S1000
G1 X120.941 Y101.75 F10800
M204 S800
G1 F900
G1 X121.501 Y101.153 E.02565
G1 X122.146 Y100.653 E.02558
G1 X123.161 Y100.136 E.03574
G1 X124.43 Y99.831 E.04091
G1 X125.339 Y99.813 E.02849
G1 X126.371 Y99.984 E.03282
G1 X127.139 Y100.261 E.02559
G1 X128.252 Y100.942 E.04091
G1 X128.847 Y101.501 E.02558
G1 X129.347 Y102.146 E.02558
G1 X129.864 Y103.161 E.03574
G1 X130.169 Y104.43 E.04091
G1 X130.194 Y105.246 E.02558
G1 X130.016 Y106.371 E.03574
G1 X129.739 Y107.139 E.02559
G1 X129.058 Y108.252 E.04091
G1 X128.499 Y108.847 E.02558
G1 X127.854 Y109.347 E.02558
G1 X126.839 Y109.864 E.03574
G1 X125.57 Y110.169 E.04091
G1 X124.754 Y110.194 E.02558
G1 X123.629 Y110.016 E.03574
G1 X122.861 Y109.739 E.02559
G1 X121.748 Y109.058 E.04091
G1 X121.153 Y108.499 E.02558
G1 X120.653 Y107.854 E.02558
G1 X120.136 Y106.839 E.03574
G1 X119.831 Y105.57 E.04091
G1 X119.806 Y104.754 E.02558
G1 X119.984 Y103.629 E.03574
G1 X120.261 Y102.861 E.02559
G1 X120.91 Y101.801 E.03897
M204 S1000
G1 X121.227 Y101.996 F10800
M204 S800
G1 F900
G1 X121.746 Y101.44 E.02382
G1 X122.343 Y100.975 E.02373
G1 X123.306 Y100.484 E.03388
G1 X124.46 Y100.207 E.03721
G1 X125.309 Y100.189 E.02664
G1 X126.283 Y100.351 E.03097
G1 X126.995 Y100.609 E.02373
G1 X128.007 Y101.229 E.03721
G1 X128.56 Y101.746 E.02373
G1 X129.025 Y102.343 E.02373
G1 X129.516 Y103.306 E.03388
G1 X129.793 Y104.46 E.03721
G1 X129.818 Y105.216 E.02373
G1 X129.649 Y106.283 E.03388
G1 X129.391 Y106.995 E.02373
G1 X128.771 Y108.007 E.03721
G1 X128.254 Y108.56 E.02373
G1 X127.657 Y109.025 E.02373
G1 X126.694 Y109.516 E.03388
G1 X125.54 Y109.793 E.03721
G1 X124.784 Y109.818 E.02373
G1 X123.717 Y109.649 E.03388
G1 X123.005 Y109.391 E.02373
G1 X121.993 Y108.771 E.03721
G1 X121.44 Y108.254 E.02373
G1 X120.975 Y107.657 E.02373
G1 X120.484 Y106.694 E.03388
G1 X120.207 Y105.54 E.03721
G1 X120.182 Y104.784 E.02373
G1 X120.351 Y103.717 E.03388
G1 X120.609 Y103.005 E.02373
G1 X121.196 Y102.047 E.03524
M204 S1000
G1 X121.514 Y102.241 F10800
M204 S800
G1 F900
G1 X121.991 Y101.727 E.022
G1 X122.54 Y101.297 E.02188
G1 X123.45 Y100.833 E.03203
G1 X124.489 Y100.583 E.03352
G1 X125.28 Y100.565 E.02478
G1 X126.195 Y100.718 E.02911
G1 X126.851 Y100.957 E.02188
M73 Q2 S13
G1 X127.762 Y101.516 E.03351
G1 X128.273 Y101.991 E.02188
G1 X128.703 Y102.54 E.02188
G1 X129.167 Y103.45 E.03203
G1 X129.417 Y104.489 E.03352
G1 X129.442 Y105.187 E.02188
M73 P2 R13
G1 X129.282 Y106.195 E.03203
G1 X129.043 Y106.851 E.02188
G1 X128.484 Y107.762 E.03351
G1 X128.009 Y108.273 E.02188
G1 X127.46 Y108.703 E.02188
G1 X126.55 Y109.167 E.03203
G1 X125.511 Y109.417 E.03352
G1 X124.813 Y109.442 E.02188
G1 X123.805 Y109.282 E.03203
G1 X123.149 Y109.043 E.02188
G1 X122.238 Y108.484 E.03351
G1 X121.727 Y108.009 E.02188
G1 X121.297 Y107.46 E.02188
G1 X120.833 Y106.55 E.03203
G1 X120.583 Y105.511 E.03352
G1 X120.558 Y104.813 E.02188
G1 X120.718 Y103.805 E.03203
G1 X120.957 Y103.149 E.02188
G1 X121.482 Y102.293 E.03151
M204 S1000
; printing object bead.stl id:0 copy 0
;WIPE_START
G1 F8640
G1 X121.991 Y101.727 E-.17563
G1 X122.54 Y101.297 E-.1611
G1 X123.45 Y100.833 E-.23585
G1 X124.239 Y100.643 E-.18743
;WIPE_END
G1 E-.04 F2100
G1 Z.6 F720
G1 X124.474 Y106.065 F10800
G1 Z.2 F720
G1 E.8 F2100
M204 S800
;TYPE:External perimeter
;WIDTH:0.38292
G1 F900
G1 X124.16 Y105.841 E.0109
G1 X123.919 Y105.489 E.01205
;WIDTH:0.391188
G1 X123.804 Y105 E.01455
G1 X123.919 Y104.511 E.01456
;WIDTH:0.38292
G1 X124.16 Y104.159 E.01205
G1 X124.495 Y103.926 E.01153
;WIDTH:0.387394
G1 X124.945 Y103.812 E.01329
;WIDTH:0.390232
G1 X125.342 Y103.857 E.01155
G1 X125.712 Y104.041 E.01195
;WIDTH:0.38963
G1 X125.831 Y104.151 E.00465
;WIDTH:0.38292
G1 X126.065 Y104.473 E.01127
;WIDTH:0.389528
G1 X126.19 Y104.961 E.0145
;WIDTH:0.413916
G1 X126.126 Y105.366 E.01266
G1 X125.961 Y105.699 E.01147
;WIDTH:0.405182
G1 X125.699 Y105.962 E.01119
;WIDTH:0.403476
G1 X125.381 Y106.132 E.01081
;WIDTH:0.389634
G1 X125.027 Y106.193 E.01036
;WIDTH:0.388838
G1 X124.673 Y106.146 E.01026
;WIDTH:0.387668
G1 X124.529 Y106.088 E.00445
M204 S1000
; stop printing object bead.stl id:0 copy 0
M106 S84.15
;LAYER_CHANGE
;Z:0.3
;HEIGHT:0.1
;BEFORE_LAYER_CHANGE
G92 E0.0
;0.3


;WIPE_START
G1 F8640
G1 X124.16 Y105.841 E-.10253
G1 X123.919 Y105.489 E-.09842
G1 X123.804 Y105 E-.11605
G1 X123.919 Y104.511 E-.11608
G1 X124.16 Y104.159 E-.09842
G1 X124.495 Y103.926 E-.09419
G1 X124.945 Y103.812 E-.1071
G1 X125.062 Y103.825 E-.02719
;WIPE_END
G1 E-.04 F2100
G1 Z.6 F720
;AFTER_LAYER_CHANGE
;0.3
M104 S210 ; set temperature
G1 X125.835 Y99.133 F10800
G1 Z.3 F720
G1 E.8 F2100
;TYPE:Skirt/Brim
;WIDTH:0.42
G1 F900
G1 X126.547 Y99.251 E.01196
G1 X127.428 Y99.564 E.01548
G1 X128.742 Y100.369 E.02553
G1 X129.42 Y101.011 E.01548
G1 X129.99 Y101.752 E.01548
G1 X130.561 Y102.873 E.02085
G1 X130.92 Y104.371 E.02553
G1 X130.946 Y105.305 E.01548
G1 X130.749 Y106.547 E.02085
G1 X130.436 Y107.428 E.01548
G1 X129.631 Y108.742 E.02553
G1 X128.989 Y109.42 E.01548
G1 X128.248 Y109.99 E.01548
G1 X127.127 Y110.561 E.02085
G1 X125.629 Y110.92 E.02553
G1 X124.695 Y110.946 E.01548
G1 X123.453 Y110.749 E.02085
G1 X122.572 Y110.436 E.01548
G1 X121.258 Y109.631 E.02553
G1 X120.58 Y108.989 E.01548
G1 X120.01 Y108.248 E.01548
G1 X119.439 Y107.127 E.02085
G1 X119.08 Y105.629 E.02553
G1 X119.054 Y104.695 E.01548
G1 X119.251 Y103.453 E.02085
G1 X119.564 Y102.572 E.01548
G1 X120.369 Y101.258 E.02553
G1 X121.011 Y100.58 E.01548
G1 X121.752 Y100.01 E.01548
G1 X122.873 Y99.439 E.02085
G1 X124.371 Y99.08 E.02553
G1 X125.398 Y99.061 E.01702
G1 X125.776 Y99.124 E.00635
G1 X125.715 Y99.495 F10800
G1 F900
G1 X126.459 Y99.618 E.01251
G1 X127.284 Y99.912 E.0145
G1 X128.497 Y100.656 E.02357
G1 X129.133 Y101.256 E.0145
G1 X129.668 Y101.949 E.0145
G1 X130.212 Y103.017 E.01987
G1 X130.544 Y104.401 E.02358
G1 X130.57 Y105.275 E.0145
G1 X130.382 Y106.459 E.01987
G1 X130.088 Y107.284 E.0145
G1 X129.344 Y108.497 E.02357
G1 X128.744 Y109.133 E.0145
G1 X128.051 Y109.668 E.0145
G1 X126.983 Y110.212 E.01987
G1 X125.599 Y110.544 E.02358
G1 X124.725 Y110.57 E.0145
G1 X123.541 Y110.382 E.01987
G1 X122.716 Y110.088 E.0145
G1 X121.503 Y109.344 E.02357
G1 X120.867 Y108.744 E.0145
G1 X120.332 Y108.051 E.0145
G1 X119.788 Y106.983 E.01987
G1 X119.456 Y105.599 E.02358
G1 X119.43 Y104.725 E.0145
G1 X119.618 Y103.541 E.01987
G1 X119.912 Y102.716 E.0145
G1 X120.656 Y101.503 E.02357
G1 X121.256 Y100.867 E.0145
G1 X121.949 Y100.332 E.0145
G1 X123.017 Y99.788 E.01987
G1 X124.401 Y99.456 E.02358
G1 X125.368 Y99.437 E.01604
G1 X125.656 Y99.485 E.00482
G1 X125.594 Y99.856 F10800
G1 F900
G1 X126.371 Y99.984 E.01305
G1 X127.139 Y100.261 E.01352
G1 X128.252 Y100.942 E.02162
G1 X128.847 Y101.501 E.01352
G1 X129.347 Y102.146 E.01352
G1 X129.864 Y103.161 E.01889
G1 X130.169 Y104.43 E.02162
G1 X130.194 Y105.246 E.01352
G1 X130.016 Y106.371 E.01889
G1 X129.739 Y107.139 E.01352
G1 X129.058 Y108.252 E.02162
G1 X128.499 Y108.847 E.01352
M73 Q3 S13
G1 X127.854 Y109.347 E.01352
G1 X126.839 Y109.864 E.01889
G1 X125.57 Y110.169 E.02162
G1 X124.754 Y110.194 E.01352
G1 X123.629 Y110.016 E.01889
M73 P3 R13
G1 X122.861 Y109.739 E.01352
G1 X121.748 Y109.058 E.02162
G1 X121.153 Y108.499 E.01352
G1 X120.653 Y107.854 E.01352
G1 X120.136 Y106.839 E.01889
G1 X119.831 Y105.57 E.02162
G1 X119.806 Y104.754 E.01352
G1 X119.984 Y103.629 E.01889
G1 X120.261 Y102.861 E.01352
G1 X120.942 Y101.748 E.02162
G1 X121.501 Y101.153 E.01352
G1 X122.146 Y100.653 E.01352
G1 X123.161 Y100.136 E.01889
G1 X124.43 Y99.831 E.02162
G1 X125.339 Y99.813 E.01506
G1 X125.535 Y99.846 E.0033
G1 X125.473 Y100.216 F10800
G1 F900
G1 X126.283 Y100.351 E.0136
G1 X126.995 Y100.609 E.01254
G1 X128.007 Y101.229 E.01967
G1 X128.56 Y101.746 E.01254
G1 X129.025 Y102.343 E.01254
G1 X129.516 Y103.306 E.0179
G1 X129.793 Y104.46 E.01967
G1 X129.818 Y105.216 E.01254
G1 X129.649 Y106.283 E.0179
G1 X129.391 Y106.995 E.01254
G1 X128.771 Y108.007 E.01967
G1 X128.254 Y108.56 E.01254
G1 X127.657 Y109.025 E.01254
G1 X126.694 Y109.516 E.0179
G1 X125.54 Y109.793 E.01967
G1 X124.784 Y109.818 E.01254
G1 X123.717 Y109.649 E.0179
G1 X123.005 Y109.391 E.01254
G1 X121.993 Y108.771 E.01967
G1 X121.44 Y108.254 E.01254
G1 X120.975 Y107.657 E.01254
G1 X120.484 Y106.694 E.0179
G1 X120.207 Y105.54 E.01967
G1 X120.182 Y104.784 E.01254
G1 X120.351 Y103.717 E.0179
G1 X120.609 Y103.005 E.01254
G1 X121.229 Y101.993 E.01967
G1 X121.746 Y101.44 E.01254
G1 X122.343 Y100.975 E.01254
G1 X123.306 Y100.484 E.0179
G1 X124.46 Y100.207 E.01967
G1 X125.309 Y100.189 E.01408
G1 X125.414 Y100.207 E.00177
G1 X125.353 Y100.577 F10800
G1 F900
G1 X126.195 Y100.718 E.01416
G1 X126.851 Y100.957 E.01156
G1 X127.762 Y101.516 E.01771
G1 X128.273 Y101.991 E.01156
G1 X128.703 Y102.54 E.01156
G1 X129.167 Y103.45 E.01692
G1 X129.417 Y104.489 E.01771
G1 X129.442 Y105.187 E.01156
G1 X129.282 Y106.195 E.01692
G1 X129.043 Y106.851 E.01156
G1 X128.484 Y107.762 E.01771
G1 X128.009 Y108.273 E.01156
G1 X127.46 Y108.703 E.01156
G1 X126.55 Y109.167 E.01692
G1 X125.511 Y109.417 E.01771
G1 X124.813 Y109.442 E.01156
G1 X123.805 Y109.282 E.01692
G1 X123.149 Y109.043 E.01156
G1 X122.238 Y108.484 E.01771
G1 X121.727 Y108.009 E.01156
G1 X121.297 Y107.46 E.01156
G1 X120.833 Y106.55 E.01692
G1 X120.583 Y105.511 E.01771
G1 X120.558 Y104.813 E.01156
G1 X120.718 Y103.805 E.01692
G1 X120.957 Y103.149 E.01156
G1 X121.516 Y102.238 E.01771
G1 X121.991 Y101.727 E.01156
G1 X122.54 Y101.297 E.01156
G1 X123.45 Y100.833 E.01692
G1 X124.489 Y100.583 E.01771
G1 X125.293 Y100.567 E.01333
; printing object bead.stl id:0 copy 0
;WIPE_START
G1 F8640
G1 X126.195 Y100.718 E-.21115
G1 X126.851 Y100.957 E-.1611
G1 X127.762 Y101.516 E-.24681
G1 X128.209 Y101.931 E-.14094
;WIPE_END
G1 E-.04 F2100
G1 Z.7 F720
G1 X123.97 Y106.254 F10800
G1 Z.3 F720
G1 E.8 F2100
M204 S600
;TYPE:Overhang perimeter
;WIDTH:0.435711
G1 F1500
G1 X123.678 Y105.961 E.00713
;WIDTH:0.447347
G1 X123.451 Y105.503 E.00904
G1 X123.371 Y105 E.00902
G1 X123.445 Y104.495 E.00904
G1 X123.682 Y104.043 E.00904
G1 X124.041 Y103.68 E.00903
;WIDTH:0.447121
G1 X124.497 Y103.451 E.00903
G1 X125 Y103.366 E.00903
;WIDTH:0.436284
G1 X125.505 Y103.445 E.00882
;WIDTH:0.447344
G1 X125.957 Y103.682 E.00904
G1 X126.32 Y104.041 E.00903
;WIDTH:0.44531
G1 X126.55 Y104.517 E.00931
G1 X126.629 Y105.034 E.00921
;WIDTH:0.447392
G1 X126.554 Y105.47 E.00784
G1 X126.335 Y105.929 E.00901
G1 X125.981 Y106.294 E.009
G1 X125.534 Y106.54 E.00903
G1 X125.035 Y106.623 E.00897
G1 X124.517 Y106.549 E.00925
G1 X124.039 Y106.323 E.00937
;WIDTH:0.435711
G1 X124.013 Y106.296 E.00065
M204 S1000
G1 X124.26 Y105.963 F10800
M204 S600
;TYPE:External perimeter
;WIDTH:0.433756
G1 F900
G1 X123.992 Y105.673 E.00678
G1 X123.801 Y105.19 E.00889
G1 X123.833 Y104.672 E.0089
;WIDTH:0.447367
G1 X124.038 Y104.281 E.00782
G1 X124.165 Y104.12 E.00362
;WIDTH:0.432338
G1 X124.492 Y103.9 E.00673
;WIDTH:0.436284
G1 X124.993 Y103.783 E.00888
G1 X125.42 Y103.863 E.00749
;WIDTH:0.433763
G1 X125.858 Y104.142 E.0089
;WIDTH:0.433971
G1 X126.108 Y104.51 E.00764
;WIDTH:0.435574
G1 X126.218 Y105.001 E.00865
G1 X126.1 Y105.507 E.00895
;WIDTH:0.43255
G1 X125.858 Y105.858 E.00729
;WIDTH:0.433778
G1 X125.42 Y106.137 E.00891
;WIDTH:0.447351
G1 X124.985 Y106.201 E.00778
G1 X124.763 Y106.188 E.00393
;WIDTH:0.435711
G1 X124.31 Y105.996 E.00848
M204 S1000
; stop printing object bead.stl id:0 copy 0
M106 S170.85
;LAYER_CHANGE
;Z:0.4
;HEIGHT:0.1
;BEFORE_LAYER_CHANGE
G92 E0.0
;0.4


;WIPE_START
G1 F8640
G1 X123.992 Y105.673 E-.10465
G1 X123.801 Y105.19 E-.11982
G1 X123.833 Y104.672 E-.11991
G1 X124.038 Y104.281 E-.10203
G1 X124.165 Y104.12 E-.04724
G1 X124.492 Y103.9 E-.09092
G1 X124.993 Y103.783 E-.11891
G1 X125.234 Y103.828 E-.05653
;WIPE_END
G1 E-.04 F2100
G1 Z.7 F720
;AFTER_LAYER_CHANGE
;0.4
G1 X126.003 Y99.161 F10800
G1 Z.4 F720
G1 E.8 F2100
;TYPE:Skirt/Brim
;WIDTH:0.42
G1 F900
G1 X126.547 Y99.251 E.00914
G1 X127.428 Y99.564 E.01548
G1 X128.742 Y100.369 E.02553
G1 X129.42 Y101.011 E.01548
G1 X129.99 Y101.752 E.01548
G1 X130.561 Y102.873 E.02085
G1 X130.92 Y104.371 E.02553
G1 X130.946 Y105.305 E.01548
G1 X130.749 Y106.547 E.02085
G1 X130.436 Y107.428 E.01548
G1 X129.631 Y108.742 E.02553
G1 X128.989 Y109.42 E.01548
G1 X128.248 Y109.99 E.01548
G1 X127.127 Y110.561 E.02085
G1 X125.629 Y110.92 E.02553
G1 X124.695 Y110.946 E.01548
G1 X123.453 Y110.749 E.02085
G1 X122.572 Y110.436 E.01548
M73 Q4 S13
G1 X121.258 Y109.631 E.02553
G1 X120.58 Y108.989 E.01548
G1 X120.01 Y108.248 E.01548
G1 X119.439 Y107.127 E.02085
G1 X119.08 Y105.629 E.02553
M73 P4 R13
G1 X119.054 Y104.695 E.01548
G1 X119.251 Y103.453 E.02085
G1 X119.564 Y102.572 E.01548
G1 X120.369 Y101.258 E.02553
G1 X121.011 Y100.58 E.01548
G1 X121.752 Y100.01 E.01548
G1 X122.873 Y99.439 E.02085
G1 X124.371 Y99.08 E.02553
G1 X125.398 Y99.061 E.01702
